flaticon/sport/weight-1.svg

<svg xmlns="http://www.w3.org/2000/svg" width="32" height="32" viewBox="0 0 24 24">
    <path d="M 12 10 C 10.898438 10 10 10.898438 10 12 C 10 13.101562 10.898438 14 12 14 C 13.101562 14 14 13.101562 14 12 C 14 10.898438 13.101562 10 12 10 Z M 12 13.199219 C 11.339844 13.199219 10.800781 12.660156 10.800781 12 C 10.800781 11.339844 11.339844 10.800781 12 10.800781 C 12.660156 10.800781 13.199219 11.339844 13.199219 12 C 13.199219 12.660156 12.660156 13.199219 12 13.199219 Z M 12 13.199219"/>
    <path d="M 12 0 C 5.382812 0 0 5.382812 0 12 C 0 18.617188 5.382812 24 12 24 C 18.617188 24 24 18.617188 24 12 C 24 5.382812 18.617188 0 12 0 Z M 12 23.199219 C 5.824219 23.199219 0.800781 18.175781 0.800781 12 C 0.800781 5.824219 5.824219 0.800781 12 0.800781 C 18.175781 0.800781 23.199219 5.824219 23.199219 12 C 23.199219 18.175781 18.175781 23.199219 12 23.199219 Z M 12 23.199219"/>
    <path d="M 12 2 C 6.484375 2 2 6.484375 2 12 C 2 17.515625 6.484375 22 12 22 C 17.515625 22 22 17.515625 22 12 C 22 6.484375 17.515625 2 12 2 Z M 12 21.199219 C 6.925781 21.199219 2.800781 17.074219 2.800781 12 C 2.800781 6.925781 6.925781 2.800781 12 2.800781 C 17.074219 2.800781 21.199219 6.925781 21.199219 12 C 21.199219 17.074219 17.074219 21.199219 12 21.199219 Z M 12 21.199219"/>
    <path d="M12 8C9.792969 8 8 9.792969 8 12 8 14.207031 9.792969 16 12 16 14.207031 16 16 14.207031 16 12 16 9.792969 14.207031 8 12 8zM12 15.199219C10.234375 15.199219 8.800781 13.765625 8.800781 12 8.800781 10.234375 10.234375 8.800781 12 8.800781 13.765625 8.800781 15.199219 10.234375 15.199219 12 15.199219 13.765625 13.765625 15.199219 12 15.199219zM4 12L5.601562 12C5.820312 12 6 12.179688 6 12.398438 6 12.621094 5.820312 12.800781 5.601562 12.800781L4 12.800781 4 13.601562 5.601562 13.601562C6.261719 13.601562 6.800781 13.0625 6.800781 12.398438 6.800781 11.738281 6.261719 11.199219 5.601562 11.199219L4.800781 11.199219 4.800781 10.398438 6.800781 10.398438 6.800781 9.601562 4 9.601562zM20 10.398438L20 9.601562 17.199219 9.601562 17.199219 12 18.800781 12C19.019531 12 19.199219 12.179688 19.199219 12.398438 19.199219 12.621094 19.019531 12.800781 18.800781 12.800781L17.199219 12.800781 17.199219 13.601562 18.800781 13.601562C19.460938 13.601562 20 13.0625 20 12.398438 20 11.738281 19.460938 11.199219 18.800781 11.199219L18 11.199219 18 10.398438zM20 10.398438"/>
</svg>

<svg xmlns="http://www.w3.org/2000/svg" width="32" height="32" viewBox="0 0 24 24">
    <path d="M12 10c-1.102 0-2 .898-2 2 0 1.102.898 2 2 2 1.102 0 2-.898 2-2 0-1.102-.898-2-2-2zm0 3.2c-.66 0-1.2-.54-1.2-1.2 0-.66.54-1.2 1.2-1.2.66 0 1.2.54 1.2 1.2 0 .66-.54 1.2-1.2 1.2zm0 0"/>
    <path d="M12 0C5.383 0 0 5.383 0 12s5.383 12 12 12 12-5.383 12-12S18.617 0 12 0zm0 23.2C5.824 23.2.8 18.175.8 12 .8 5.824 5.825.8 12 .8 18.176.8 23.2 5.825 23.2 12c0 6.176-5.024 11.2-11.2 11.2zm0 0"/>
    <path d="M12 2C6.484 2 2 6.484 2 12s4.484 10 10 10 10-4.484 10-10S17.516 2 12 2zm0 19.2c-5.074 0-9.2-4.126-9.2-9.2 0-5.074 4.126-9.2 9.2-9.2 5.074 0 9.2 4.126 9.2 9.2 0 5.074-4.126 9.2-9.2 9.2zm0 0"/>
    <path d="M12 8c-2.207 0-4 1.793-4 4s1.793 4 4 4 4-1.793 4-4-1.793-4-4-4zm0 7.2A3.2 3.2 0 0 1 8.8 12 3.2 3.2 0 0 1 12 8.8a3.2 3.2 0 0 1 3.2 3.2 3.2 3.2 0 0 1-3.2 3.2zm0 0M4 12h1.602a.4.4 0 0 1 0 .8H4v.802h1.602a1.202 1.202 0 0 0 0-2.402H4.8v-.802h2v-.796H4zm0 0M20 10.398v-.796h-2.8V12h1.6a.4.4 0 0 1 0 .8h-1.6v.802h1.6a1.202 1.202 0 0 0 0-2.402H18v-.802zm0 0"/>
</svg>
